X: 155
T: Sailor On The Rock
R: reel
M: 4/4
L: 1/8
K:Dmaj
"D"defd "(Bm)"BAFB|"D"AD (3FED FAAB|defd "(Bm)"BAFB|1 "D"ABdf eddB:|2 ABdf edde||
"D"faag fddf|"G"~g3a "Em"bgeg|"D"faag fedB|ABdf edde|
"D"faag fddf|"G"~g3a "(Em)"bgeg|"D"~f3e "(Bm)"~d3B|"D"ABdf eddA|]


